X: 1
T:If All the World Were Paper
M:6/8
L:1/8
%Q:110
R:Jig
K:C
G \
| "F"A2G "G7"A2B | "C"c3 C3 | E2D E2F | G3-G2E \
| "F"F2E F2G | "Dm"A2F D2c | "G7"d2G A2B | "C"c3-c2 :|
|: c \
| "G"B2A B2c | d3 G2G | "C"c2B c2d | e3- e2e \
| "F"f2e d2c | "G7"B2A G2d | g2G A2B | "C"c3-c2 :|
